Obsidian/actions/22s/office-chart-bar.svg

<svg height="22" viewBox="0 0 22 22" width="22" xmlns="http://www.w3.org/2000/svg"><path d="m2 2v12h12v-1h-1v-5h-4v5h-1v-11h-4v11h-1v-11zm3 1h2v10h-2zm5 6h2v4h-2z" fill="#bebebe" transform="translate(3 3)"/></svg>

<svg xmlns="http://www.w3.org/2000/svg" width="22" height="22" viewBox="0 0 22 22">
 <defs>
  <style id="current-color-scheme" type="text/css">
   .ColorScheme-Text { color:#bebebe; } .ColorScheme-Highlight { color:#4285f4; }
  </style>
 </defs>
 <path style="fill:currentColor" class="ColorScheme-Text" d="M 2 2 L 2 14 L 14 14 L 14 13 L 13 13 L 13 8 L 9 8 L 9 13 L 8 13 L 8 2 L 4 2 L 4 13 L 3 13 L 3 2 L 2 2 z M 5 3 L 7 3 L 7 13 L 5 13 L 5 3 z M 10 9 L 12 9 L 12 13 L 10 13 L 10 9 z" transform="translate(3 3)"/>
</svg>
